src/assets/outline/DirectLeft.svg

<svg width="24" height="24" viewBox="0 0 24 24"  xmlns="http://www.w3.org/2000/svg">
<path d="M17.81 22.0599C17.18 22.0599 16.55 21.9099 15.95 21.5899L4.36 15.4899C3.06 14.8099 2.25 13.4699 2.25 11.9999C2.25 10.5299 3.06 9.18988 4.36 8.50988L15.95 2.40988C17.5 1.59988 19.3 1.85988 20.55 3.07988C21.8 4.29988 22.1 6.09988 21.32 7.65988L19.7 10.8999C19.36 11.5799 19.36 12.3999 19.7 13.0899L21.32 16.3299C22.1 17.8899 21.8 19.6899 20.55 20.9099C19.78 21.6699 18.81 22.0599 17.81 22.0599ZM17.8 3.43988C17.44 3.43988 17.05 3.52988 16.65 3.73988L5.06 9.83988C4.24 10.2699 3.75 11.0799 3.75 11.9999C3.75 12.9199 4.24 13.7299 5.06 14.1599L16.65 20.2599C17.81 20.8699 18.89 20.4499 19.5 19.8399C20.12 19.2399 20.56 18.1699 19.98 16.9999L18.36 13.7599C17.81 12.6499 17.81 11.3399 18.36 10.2299L19.98 6.98988C20.57 5.81988 20.12 4.74988 19.5 4.14988C19.1 3.75988 18.5 3.43988 17.8 3.43988Z" />
</svg>

<?xml version="1.0" encoding="UTF-8"?>
<svg width="24" height="24" viewBox="0 0 24 24" xmlns="http://www.w3.org/2000/svg">
 <path d="m17.81 22.06c-0.63 0-1.26-0.15-1.86-0.47l-11.59-6.1c-1.3-0.68-2.11-2.02-2.11-3.49s0.81-2.81 2.11-3.49l11.59-6.1c1.55-0.81 3.35-0.55 4.6 0.67s1.55 3.02 0.77 4.58l-1.62 3.24c-0.34 0.68-0.34 1.5 0 2.19l1.62 3.24c0.78 1.56 0.48 3.36-0.77 4.58-0.77 0.76-1.74 1.15-2.74 1.15zm-0.01-18.62c-0.36 0-0.75 0.09-1.15 0.3l-11.59 6.1c-0.82 0.43002-1.31 1.24-1.31 2.16s0.49 1.73 1.31 2.16l11.59 6.1c1.16 0.61 2.24 0.19 2.85-0.42 0.62-0.6 1.06-1.67 0.48-2.84l-1.62-3.24c-0.55-1.11-0.55-2.42 0-3.53l1.62-3.24c0.59-1.17 0.14-2.24-0.48-2.84-0.4-0.39-1-0.71-1.7-0.71z"/>
</svg>
